X:1
T:Marching Home
T:Marching Home
T:Charles Clinton Case
T:Charles Clinton Case, 1872
T:Public Domain Courtesy of the Cyber Hymnal™
T:Public Domain Courtesy of the Cyber Hymnal™
C:Charles Clinton Case
Z:Public Domain
Z:Courtesy of the Cyber Hymnal™
%%score ( 1 2 ) ( 3 4 )
L:1/8
Q:1/4=100
M:4/4
K:D
V:1 treble 
V:2 treble 
V:3 bass 
V:4 bass 
V:1
 [DF]>[EG] | [FA]2 [Fd]2 [FA]>[DF] D>[DF] | [CE]6 [CE]>[CE] | [CA]2 [CE]2 [CA]3 [CG] | %4
w: 1.~We are|march- ing home- ward with the|blest, To that|bright, bright world a-|
w: 2.~Je- sus|stands and beck- ons to us|now, As we|fal- ter on the|
w: 3.~Our dear|Sav- ior has pre- pared the|way, Where we|all who will may|
 [DF]6 [DF]>[EG] | [FA]2 [Fd]2 [FA]>[DF] D>[DF] | [CE]6 [CA]>[CA] | [DB]2 [DE]2 [Ec]3 [DB] | %8
w: bove; Where our|friends are gone and are at|rest, In that|world of light and|
w: way; He will|save us, if to Him we|bow, Wh- o|rules both night and|
w: come; If we|serve Him tru- ly day by|day, He at|last will bring us|
 [CA]6 ||"^Refrain" [DF]>[EG] | [FA]6 [DB]>[Ec] | [Fd]6 [Fd]>[DF] | %12
w: love.||||
w: day.|March- ing|home, march- ing|home; We are|
w: home.||||
 [CE]2 [CA]2 [DA]>[DF] [CE]>[CG] | [DF]6 [DF]>[EG] | [FA]6 [Fd]>[Ac] | !fermata![GB]6 [Gd]>[GB] | %16
w: ||||
w: march- ing home- ward with the|blest. March- ing|home, marchi- ng|home; We are|
w: ||||
 [FA]2 [DF]2 [DF]3 [CE] | D6 |] %18
w: ||
w: march- ing home to|rest.|
w: ||
V:2
 x2 | x6 D3/2 x/ | x8 | x8 | x8 | x6 D3/2 x/ | x8 | x8 | x6 || x2 | x8 | x8 | x8 | x8 | x8 | x8 | %16
 x8 | D6 |] %18
V:3
 [D,A,]>[D,A,] | [D,D]2 [D,A,]2 [D,D]>[D,A,] [D,F,]>[D,A,] | [A,,A,]6 [A,,A,]>[A,,A,] | %3
w: ~ ~|~ ~ ~ ~ ~ ~|~ ~ ~|
 [A,,A,]2 [A,,A,]2 [A,,A,]3 [A,,A,] | [D,A,]6 [D,A,]>[D,A,] | %5
w: ~ ~ ~ ~|~ ~ ~|
 [D,D]2 [D,A,]2 [D,A,]>[D,A,] [D,F,]>[D,A,] | A,6 A,>A, | [E,^G,]2 [E,G,]2 [E,A,]3 [E,G,] | %8
w: ~ ~ ~ ~ ~ ~|~ ~ ~|~ ~ ~ ~|
 [A,,A,]6 || z2 | z2 [D,D]>[D,D] [D,D]2 z2 | z2 [D,A,]>[D,A,] [D,A,]2 [D,A,]>[D,A,] | %12
w: ~||March- ing home,|march- ing home, ~ ~|
 [A,,A,]2 [A,,A,]2 [A,,F,]>[A,,A,] [A,,A,]>[A,,A,] | [D,A,]2 [D,A,]>[D,A,] [D,A,]2 z2 | %14
w: ~ ~ ~ ~ ~ ~|~ ~ ~ ~|
 z2 [D,D]>[D,D] [D,D]2 z2 | z2 [G,D]>[G,D] !fermata![G,D]2 [G,B,]>[G,D] | %16
w: March- ing home,|march- ing home, * *|
 [A,D]2 A,2 [A,,A,]3 [A,,G,] | [D,F,]6 |] %18
w: ||
V:4
 x2 | x8 | x8 | x8 | x8 | x8 | A,6 A,>A, | x8 | x6 || x2 | x8 | x8 | x8 | x8 | x8 | x8 | %16
 x2 A,2 x4 | x6 |] %18

